X: 2165
T: Şem`â-i Maksûdu Yak
C: Dellalzâde İsmail Efendi
O: Turkey
F: http://compmusic.upf.edu/node/140
N: segah--sarki--ciftesofyan--sema-i_maksudu--dellalzade_haci_ismail_efendi
N: makam= segah
N: form= sarki
N: usul= ciftesofyan = 9/8
M: 9/8
L: 1/16
K: C _1/4B _1/4e ^f 
Q: 1/4=152
%%MIDI tuningsystem comma53
B4 B4 c2B2 =f2e2 d2 | d2 c2d2 c2B2 B2^A2 B4  | \
w:   |   | 
e2d2 c2B2 A2B4c2 B2 | 
w:   | 
c2 d2e2 c2e2 d4 d4  | z2z4d2 e2=f2 g2a2 g2 | \
w:   |   | 
=f2 f2e3dc2 d2e2 d2e4g2 g3f f3e e3d d4 c2d2 c2d2 c2B2 B4  | 
w:   | 
d2_7/8e2 f2g4g4b2 _7/8a2 | g4f2 f2_7/8e2 f2e2 d2d2  | \
w:   |   | 
c2d2 _7/8e2f2 g4 f2g2 _7/8a4 g4 f2f2 e2f2 e2d2  | 
w:   | 
dcBc d4 z2z4d2 e2 | =f2 g2a2 g2f2 f2e3dc2  | \
w:   |   | 
d2e2 d2e4g2 g3=f f3e e3d d4 c2d2 c2d2  | 
w:   | 
c2B2 B4 B4 z2z4 | e2 =f2f2 e2d2 ^c2B2 c4  | \
w:   |   | 
d4 dcB^A B4 z2z4 | 
w:   | 
^A2 B2d2 c2B4A2 A2G2  | G2^A2 AGF^E F4 z2z4 | \
w:   |   | 
G4A4A4G2 B2c2  | 
w:   | 
B2A2 B2c2 d4 z2z4 | d2 e2=f2 g2a2 g2f2 f2e2  | \
w:   |   | 
e2d2 =f2ed d4 z2z4 | 
w:   | 
d2 e2=f2 g2a2 g2f2 f2e3dc2 d2e2 d2e4g2 g3f f3e e3d d4 c2d2  | 
w:   | 
c2d2 c2B2 b4 b2a2 b2 | c'2 d'2b2 c'2a4g2 g2c'2  | \
w:   |   | 
b2a2 g2=f2 e4 d2d2 a2 | 
w:   | 
g2 =f2e2 d2d4c2 d2f2  | e2d2 d2c2 B4 b2a2 b2 | \
w:   |   | 
c'2 d'2b2 c'2a4g2 g2c'2  | 
w:   | 
b2a2 g2=f2 e4 d2d2 a2 | g2 =f2e2 d2d4c2 d2f2  | \
w:   |   | 
e2d2 d2c2 B4 B2|
w:   | 


